assets/icons/icon-arrow-alt__down/web/icon-arrow-alt__down.svg

<?xml version="1.0" encoding="UTF-8" standalone="no"?>
<svg width="48px" height="48px" viewBox="0 0 48 48" version="1.1" xmlns="http://www.w3.org/2000/svg" xmlns:xlink="http://www.w3.org/1999/xlink">
    <!-- Generator: Sketch 45.2 (43514) - http://www.bohemiancoding.com/sketch -->
    <title>icon-arrow-alt__down</title>
    <desc>Created with Sketch.</desc>
    <defs></defs>
    <g id="Symbols" stroke="none" stroke-width="1" fill="none" fill-rule="evenodd">
        <g id="icon-arrow-alt__down" fill="#2D2D2D">
            <path d="M22.9611196,30.7788146 L21.8706669,29.6883619 C21.4837441,29.3014391 20.8562213,29.3016359 20.4629743,29.6948829 C20.07245,30.0854072 20.0747552,30.7208773 20.4564534,31.1025755 L23.2979224,33.9440446 C23.4903145,34.1364366 23.7421935,34.2331157 23.9951787,34.2333527 C24.2567746,34.2298256 24.5093045,34.1338341 24.6990941,33.9440446 L27.5405631,31.1025755 C27.927486,30.7156526 27.9272891,30.0881299 27.5340422,29.6948829 C27.1435179,29.3043586 26.5080478,29.3066637 26.1263495,29.6883619 L24.9611196,30.8535919 L24.9611196,15.2267504 C24.9611196,14.678112 24.5172548,14.2333527 23.9611196,14.2333527 C23.4088349,14.2333527 22.9611196,14.678299 22.9611196,15.2267504 L22.9611196,30.7788146 Z"></path>
        </g>
    </g>
</svg>

<svg width="48" height="48" viewBox="0 0 48 48" xmlns="http://www.w3.org/2000/svg"><title>icon-arrow-alt__down</title><path d="M22.961 30.779l-1.09-1.09a.993.993 0 0 0-1.408.006 1 1 0 0 0-.007 1.408l2.842 2.841c.192.192.444.29.697.29.262-.004.514-.1.704-.29l2.842-2.841a.993.993 0 0 0-.007-1.408 1 1 0 0 0-1.408-.007l-1.165 1.166V15.227a.994.994 0 0 0-1-.994c-.552 0-1 .445-1 .994v15.552z" fill="#2D2D2D" fill-rule="evenodd"/></svg>
